X: 312
T: Mazourka No. 4	 Op. 41
C: Fryderyk Chopin
%%abc-version 2.0
%%abcx-abcm2ps-target-version 5.9.1 (29 Sep 2008)
%%abc-creator hum2abc beta
%%abcx-conversion-date 2021/10/03 11:23:26
%%abc-edited-by Leszek Kubiak
%%abc-edited-by Jacek Iwaszko
%%abc-edited-by Marta Lawrence
%%abc-edited-by Marta Lawrence
%%abcx-initial-encoding-date 2018-06-12
%%humdrum-veritas 3676647373
%%humdrum-veritas-data 1919194057
%%linebreak <none>
%%barnumbers 0
L: 1/4
M: 3/4
N: Derived from 041-1-BH-004.krn
P: Quatre Mazourkas pour le Piano
Q: "Allegretto."
%%staves {1 2}
V: 1 clef=treble
V: 2 clef=bass
K: Ab
[V:1] E [I:setbarnb 1]| 
[V:2] z | 
[V:1] A/c/e/=e/f/G/ | 
[V:2] A,,,[ECE,][EDE,] | 
[V:1] A/c/{/f}e/=d/!accent!e | 
[V:2] A,,[_GCA,][GCA,] | 
[V:1] _d/f/g/b/a/f/ | 
[V:2] D,[FDA,][FDA,] | 
[V:1] d/=e/{/g}f/e/!accent!f | 
[V:2] B,,[FDA,][FDA,] | 
[V:1] G/A/B/c/d/=B/ | 
[V:2] E,[EDG,][EDG,] | 
[V:1] c/z//=D//{/F}E/D/!accent!E | 
[V:2] A,,[CA,E,][CA,E,] | 
[V:1] [B/G/][c/A/][d/B/][e/c/][f/d/][=d/=B/] | 
[V:2] E,,[EDG,E,][EDG,E,] | 
[V:1] [e//c//]z//=D/{/F}E/D/!accent!E | 
[V:2] A,,[CA,E,][CA,E,] | 
[V:1] A/c/e/=e/f/G/ | 
[V:2] A,,,[ECE,][EDE,] | 
[V:1] A/c/{/f}_e/=d/e | 
[V:2] A,,[_GCA,][GCA,] | 
[V:1] _d/f/g/b/a/f/ | 
[V:2] D,[FDA,][FDA,] | 
[V:1] d/=e/{/g}f/e/!accent!f | 
[V:2] B,,[FDA,][FDA,] | 
[V:1] G/A/B/c/d/=B/ | 
[V:2] E,[EDG,][EDG,] | 
[V:1] c//z//=D/{/F}E/D/!accent!E | 
[V:2] A,,[CA,E,][CA,E,] | 
[V:1] [B/G/][c/A/][d/B/][e/c/][f/d/][=d/=B/] | 
[V:2] E,,[EDG,E,][EDG,E,] | 
[V:1] [e//c//]z//=D/{/F}E/D/!accent!E- | 
[V:2] A,,[CA,E,][CA,E,] | 
[V:1] F2G- & ED2 | 
[V:2] A,B,2 & D,2E,- | 
[V:1] G/>A/A/B/c- & C2_G | 
[V:2] [E,A,,]z[EA,-] | 
[V:1] c/d<cB/ & F2=G | 
[V:2] [A,2D,2][DE,] | 
[V:1] d/c/{/d}c/=B/c & F/E/E/=D/E- | 
[V:2] A,3- | 
[V:1] F2G- & E_D2 | 
[V:2] A,B,2 & D,2E,- | 
[V:1] G/>A/A/B/c & C2=D | 
[V:2] [E,A,,]z[F,A,,] | 
[V:1] c/=d<=BG/ & E=DF | 
[V:2] [G,2G,,2][=DG,] | 
[V:1] =d/e/c2 & E3- | 
[V:2] G,3 & C,/>=D,/F,E,/D,/ | 
[V:1] F2G- & ED2 | 
[V:2] A,B,2 & _D,2E,- | 
[V:1] G/>A/A/B/c & C2_G | 
[V:2] [E,A,,]z[EA,-] | 
[V:1] c/d<cB/ & F2=G | 
[V:2] [A,2D,2][DE,] | 
[V:1] d/c/{/d}c/=B/c & F/E/E/=D/E- | 
[V:2] A,3- & A,3 | 
[V:1] F2G- & ED2 | 
[V:2] A,B,2 & D,2E, | 
[V:1] G/>A/A/B/c & C2=D | 
[V:2] [E,A,,]z[F,A,,] | 
[V:1] c/=d<=BG/ & ExF | 
[V:2] [G,2G,,2][=DG,] | 
[V:1] d/e<ce/ & E2E | 
[V:2] [G,2C,2][G,C,]- | 
[V:1] e2-e/e/ & EF/G/F- | 
[V:2] [G,C,][=B,G,C,][B,G,C,]- | 
[V:1] =d2c & F/F/EE | 
[V:2] [B,G,C,][CG,C,][CG,C,] | 
[V:1] e2-e/e/ & G/A/G/A/F- | 
[V:2] [CG,C,][=B,G,C,][B,G,C,]- | 
[V:1] =dc2 & F/F/E2 | 
[V:2] [=B,G,C,][CG,C,][CG,C,] | 
[V:1] e2-e/e/ & zG/A/F- | 
[V:2] [G,,C,,][=B,G,C,][B,G,C,]- | 
[V:1] =d2c & F/F/EE | 
[V:2] [=B,G,C,][CG,C,][CG,C,]- | 
[V:1] e2-e/e/ & G/A/G/A/F- | 
[V:2] [CG,C,][=B,G,C,][B,G,C,]- | 
[V:1] =dc2 & F/F/=E2 | 
[V:2] [=B,G,C,][CG,C,][CG,C,] | 
[V:1] zG/^G/=A/=B,/ | 
[V:2] C,,[=EG,][FG,] | 
[V:1] C{/=A} G/^F/G | 
[V:2] z[=EG,][EG,] | 
[V:1] CG/_B/=A/=B,/ | 
[V:2] C,[=EG,][FG,]- | 
[V:1] !accent!C2x | 
[V:2] [FG,][=EG,]C,- | 
[V:1] =E2F | 
[V:2] zG,/^G,/=A,/=B,,/ & C,2-C,/=B,,/ | 
[V:1] F/=E/{/F}E/^D/E- | 
[V:2] =A,G,/^F,/G,- & C,3 | 
[V:1] =E=E/G/F | 
[V:2] G,G,/_B,/=A,/=B,,/ & C,2-C,/=B,,/ | 
[V:1] =E/=B,/CG/=B/ | 
[V:2] [G,2C,2]z | 
[V:1] c2A/=B/ | 
[V:2] z3 | 
[V:1] c/=B/G/=d/c/B/ | 
[V:2] z3 | 
[V:1] G/_d/c/=B/G/d/ | 
[V:2] z3 | 
[V:1] c/=B/_B/d/c/B/ | 
[V:2] z3 | 
[V:1] A/c/e/=e/f/G/ | 
[V:2] A,,,[ECE,][EDE,] | 
[V:1] A/c/{/f}e/=d/!accent!e | 
[V:2] A,,[_GCA,][GCA,] | 
[V:1] _d/f/g/b/a/f/ | 
[V:2] D,[FDA,][FDA,] | 
[V:1] d/=e/{/g}f/e/f | 
[V:2] B,,[FDA,][FDA,] | 
[V:1] G/A/B/c/d/=B/ | 
[V:2] E,[EDG,][EDG,] | 
[V:1] c//z//=D/{/F}E/D/!accent!E | 
[V:2] A,,[CA,E,][CA,E,] | 
[V:1] [B/G/][c/A/][d/B/][e/c/][f/d/][=d/=B/] | 
[V:2] E,,[EDG,E,][EDG,E,] | 
[V:1] [e//c//]z//=D/{/F}E/D/!accent!E- | 
[V:2] A,,[CA,E,][CA,E,] | 
[V:1] F2G- & E_D2 | 
[V:2] A,B,2 & D,2E,- | 
[V:1] G/>A/A/B/c & C2_G | 
[V:2] [E,A,,]z[EA,-] | 
[V:1] c/d<cB/ & F2=G | 
[V:2] [A,2D,2][DE,] | 
[V:1] d/c/{/d}c/=B/c & F/E/E/=D/E- | 
[V:2] A,3- | 
[V:1] F2G- & ED2 | 
[V:2] A,B,2 & D,2E,- | 
[V:1] G/>A/A/B/c & C2=D | 
[V:2] [E,A,,]z[F,A,,] | 
[V:1] c/=d<=BG/ & E=DF | 
[V:2] [G,2G,,2][=DG,] | 
[V:1] =d/e/c2 & E3- | 
[V:2] G,3 & C,/>=D,/F,E,/D,/ | 
[V:1] F2G- & ED2 | 
[V:2] A,B,2 & _D,2E,- | 
[V:1] G/>A/A/B/c- & C2_G | 
[V:2] [E,A,,]z[EA,-] | 
[V:1] c/d<cB/ & F2=G | 
[V:2] [A,2D,2][DE,] | 
[V:1] d/c/{/d}c/=B/c & F/E/E/=D/E- | 
[V:2] A,3- | 
[V:1] F2G- & ED2 | 
[V:2] A,B,2 & D,2E,- | 
[V:1] G/>A/A/>B/[cE] & C3 |]  
[V:2] !fermata![E,3A,,3] |]
